images/3234838.svg

<?xml version="1.0" encoding="UTF-8"?>
<svg xmlns="http://www.w3.org/2000/svg" xmlns:xlink="http://www.w3.org/1999/xlink" width="300pt" height="300pt" viewBox="0 0 300 300" version="1.1">
<defs>
<g>
<symbol overflow="visible" id="glyph0-0">
<path style="stroke:none;" d="M 0.640625 2.296875 L 0.640625 -9.171875 L 7.140625 -9.171875 L 7.140625 2.296875 Z M 1.375 1.578125 L 6.421875 1.578125 L 6.421875 -8.4375 L 1.375 -8.4375 Z M 1.375 1.578125 "/>
</symbol>
<symbol overflow="visible" id="glyph0-1">
<path style="stroke:none;" d="M 1.28125 -9.484375 L 3 -9.484375 L 7.203125 -1.546875 L 7.203125 -9.484375 L 8.453125 -9.484375 L 8.453125 0 L 6.71875 0 L 2.515625 -7.921875 L 2.515625 0 L 1.28125 0 Z M 1.28125 -9.484375 "/>
</symbol>
</g>
</defs>
<g id="surface49477">
<rect x="0" y="0" width="300" height="300" style="fill:rgb(100%,100%,100%);fill-opacity:1;stroke:none;"/>
<path style="fill:none;stroke-width:1.2;stroke-linecap:butt;stroke-linejoin:miter;stroke:rgb(0%,0%,0%);stroke-opacity:1;stroke-miterlimit:10;" d="M 117.617188 229.976562 L 107.320312 215.820312 "/>
<path style="fill:none;stroke-width:1.2;stroke-linecap:butt;stroke-linejoin:miter;stroke:rgb(0%,0%,100%);stroke-opacity:1;stroke-miterlimit:10;" d="M 107.320312 215.820312 L 97.027344 201.660156 "/>
<path style="fill:none;stroke-width:1.2;stroke-linecap:butt;stroke-linejoin:miter;stroke:rgb(0%,0%,100%);stroke-opacity:1;stroke-miterlimit:10;" d="M 97.027344 201.660156 L 79.617188 203.5 "/>
<path style="fill:none;stroke-width:1.2;stroke-linecap:butt;stroke-linejoin:miter;stroke:rgb(0%,0%,0%);stroke-opacity:1;stroke-miterlimit:10;" d="M 79.617188 203.5 L 62.207031 205.335938 "/>
<path style="fill:none;stroke-width:1.2;stroke-linecap:butt;stroke-linejoin:miter;stroke:rgb(0%,0%,100%);stroke-opacity:1;stroke-miterlimit:10;" d="M 97.027344 201.660156 L 104.140625 185.667969 "/>
<path style="fill:none;stroke-width:1.2;stroke-linecap:butt;stroke-linejoin:miter;stroke:rgb(0%,0%,0%);stroke-opacity:1;stroke-miterlimit:10;" d="M 104.140625 185.667969 L 111.25 169.671875 "/>
<path style=" stroke:none;fill-rule:nonzero;fill:rgb(100%,100%,100%);fill-opacity:1;" d="M 92.027344 193.660156 L 102.027344 193.660156 L 102.027344 209.660156 L 92.027344 209.660156 Z M 92.027344 193.660156 "/>
<g style="fill:rgb(0%,0%,100%);fill-opacity:1;">
  <use xlink:href="#glyph0-1" x="92.027344" y="206.036133"/>
</g>
<path style="fill:none;stroke-width:1.2;stroke-linecap:butt;stroke-linejoin:miter;stroke:rgb(0%,0%,0%);stroke-opacity:1;stroke-miterlimit:10;" d="M 111.25 169.671875 L 90.660156 141.355469 "/>
<path style="fill:none;stroke-width:1.2;stroke-linecap:butt;stroke-linejoin:miter;stroke:rgb(0%,0%,0%);stroke-opacity:1;stroke-miterlimit:10;" d="M 90.660156 141.355469 L 55.84375 145.03125 "/>
<path style="fill:none;stroke-width:1.2;stroke-linecap:butt;stroke-linejoin:miter;stroke:rgb(0%,0%,0%);stroke-opacity:1;stroke-miterlimit:10;" d="M 86.3125 133.53125 L 58.457031 136.46875 "/>
<path style="fill:none;stroke-width:1.2;stroke-linecap:butt;stroke-linejoin:miter;stroke:rgb(0%,0%,0%);stroke-opacity:1;stroke-miterlimit:10;" d="M 104.886719 109.363281 L 90.660156 141.355469 "/>
<path style="fill:none;stroke-width:1.2;stroke-linecap:butt;stroke-linejoin:miter;stroke:rgb(0%,0%,0%);stroke-opacity:1;stroke-miterlimit:10;" d="M 55.84375 145.03125 L 35.25 116.714844 "/>
<path style="fill:none;stroke-width:1.2;stroke-linecap:butt;stroke-linejoin:miter;stroke:rgb(0%,0%,0%);stroke-opacity:1;stroke-miterlimit:10;" d="M 35.25 116.714844 L 49.476562 84.722656 "/>
<path style="fill:none;stroke-width:1.2;stroke-linecap:butt;stroke-linejoin:miter;stroke:rgb(0%,0%,0%);stroke-opacity:1;stroke-miterlimit:10;" d="M 44.199219 116.863281 L 55.582031 91.269531 "/>
<path style="fill:none;stroke-width:1.2;stroke-linecap:butt;stroke-linejoin:miter;stroke:rgb(0%,0%,0%);stroke-opacity:1;stroke-miterlimit:10;" d="M 49.476562 84.722656 L 84.292969 81.046875 "/>
<path style="fill:none;stroke-width:1.2;stroke-linecap:butt;stroke-linejoin:miter;stroke:rgb(0%,0%,0%);stroke-opacity:1;stroke-miterlimit:10;" d="M 84.292969 81.046875 L 104.886719 109.363281 "/>
<path style="fill:none;stroke-width:1.2;stroke-linecap:butt;stroke-linejoin:miter;stroke:rgb(0%,0%,0%);stroke-opacity:1;stroke-miterlimit:10;" d="M 79.691406 88.726562 L 96.164062 111.378906 "/>
<path style="fill:none;stroke-width:1.2;stroke-linecap:butt;stroke-linejoin:miter;stroke:rgb(0%,0%,0%);stroke-opacity:1;stroke-miterlimit:10;" d="M 104.886719 109.363281 L 139.703125 105.6875 "/>
<path style="fill:none;stroke-width:1.2;stroke-linecap:butt;stroke-linejoin:miter;stroke:rgb(0%,0%,0%);stroke-opacity:1;stroke-miterlimit:10;" d="M 139.703125 105.6875 L 160.296875 134.003906 "/>
<path style="fill:none;stroke-width:1.2;stroke-linecap:butt;stroke-linejoin:miter;stroke:rgb(0%,0%,0%);stroke-opacity:1;stroke-miterlimit:10;" d="M 148.425781 103.675781 L 164.898438 126.328125 "/>
<path style="fill:none;stroke-width:1.2;stroke-linecap:butt;stroke-linejoin:miter;stroke:rgb(0%,0%,0%);stroke-opacity:1;stroke-miterlimit:10;" d="M 153.929688 73.699219 L 139.703125 105.6875 "/>
<path style="fill:none;stroke-width:1.2;stroke-linecap:butt;stroke-linejoin:miter;stroke:rgb(0%,0%,0%);stroke-opacity:1;stroke-miterlimit:10;" d="M 160.296875 134.003906 L 195.113281 130.328125 "/>
<path style="fill:none;stroke-width:1.2;stroke-linecap:butt;stroke-linejoin:miter;stroke:rgb(0%,0%,0%);stroke-opacity:1;stroke-miterlimit:10;" d="M 195.113281 130.328125 L 209.339844 98.339844 "/>
<path style="fill:none;stroke-width:1.2;stroke-linecap:butt;stroke-linejoin:miter;stroke:rgb(0%,0%,0%);stroke-opacity:1;stroke-miterlimit:10;" d="M 204.0625 130.476562 L 215.445312 104.882812 "/>
<path style="fill:none;stroke-width:1.2;stroke-linecap:butt;stroke-linejoin:miter;stroke:rgb(0%,0%,0%);stroke-opacity:1;stroke-miterlimit:10;" d="M 215.707031 158.644531 L 195.113281 130.328125 "/>
<path style="fill:none;stroke-width:1.2;stroke-linecap:butt;stroke-linejoin:miter;stroke:rgb(0%,0%,0%);stroke-opacity:1;stroke-miterlimit:10;" d="M 209.339844 98.339844 L 188.75 70.023438 "/>
<path style="fill:none;stroke-width:1.2;stroke-linecap:butt;stroke-linejoin:miter;stroke:rgb(0%,0%,0%);stroke-opacity:1;stroke-miterlimit:10;" d="M 209.339844 98.339844 L 226.75 96.5 "/>
<path style="fill:none;stroke-width:1.2;stroke-linecap:butt;stroke-linejoin:miter;stroke:rgb(0%,0%,100%);stroke-opacity:1;stroke-miterlimit:10;" d="M 226.75 96.5 L 244.15625 94.664062 "/>
<path style="fill:none;stroke-width:1.2;stroke-linecap:butt;stroke-linejoin:miter;stroke:rgb(0%,0%,0%);stroke-opacity:1;stroke-miterlimit:10;" d="M 188.75 70.023438 L 153.929688 73.699219 "/>
<path style="fill:none;stroke-width:1.2;stroke-linecap:butt;stroke-linejoin:miter;stroke:rgb(0%,0%,0%);stroke-opacity:1;stroke-miterlimit:10;" d="M 186.132812 78.582031 L 158.277344 81.523438 "/>
<path style="fill:none;stroke-width:1.2;stroke-linecap:butt;stroke-linejoin:miter;stroke:rgb(0%,0%,100%);stroke-opacity:1;stroke-miterlimit:10;" d="M 244.15625 94.664062 L 254.453125 108.820312 "/>
<path style="fill:none;stroke-width:1.2;stroke-linecap:butt;stroke-linejoin:miter;stroke:rgb(0%,0%,0%);stroke-opacity:1;stroke-miterlimit:10;" d="M 254.453125 108.820312 L 264.75 122.980469 "/>
<path style="fill:none;stroke-width:1.2;stroke-linecap:butt;stroke-linejoin:miter;stroke:rgb(0%,0%,100%);stroke-opacity:1;stroke-miterlimit:10;" d="M 239.554688 102.339844 L 247.792969 113.664062 "/>
<path style="fill:none;stroke-width:1.2;stroke-linecap:butt;stroke-linejoin:miter;stroke:rgb(0%,0%,0%);stroke-opacity:1;stroke-miterlimit:10;" d="M 247.792969 113.664062 L 256.027344 124.992188 "/>
<path style=" stroke:none;fill-rule:nonzero;fill:rgb(100%,100%,100%);fill-opacity:1;" d="M 239.15625 86.664062 L 249.15625 86.664062 L 249.15625 102.664062 L 239.15625 102.664062 Z M 239.15625 86.664062 "/>
<g style="fill:rgb(0%,0%,100%);fill-opacity:1;">
  <use xlink:href="#glyph0-1" x="239.15625" y="99.040039"/>
</g>
<path style="fill:none;stroke-width:1.2;stroke-linecap:butt;stroke-linejoin:miter;stroke:rgb(0%,0%,0%);stroke-opacity:1;stroke-miterlimit:10;" d="M 264.75 122.980469 L 257.636719 138.972656 "/>
<path style="fill:none;stroke-width:1.2;stroke-linecap:butt;stroke-linejoin:miter;stroke:rgb(0%,0%,100%);stroke-opacity:1;stroke-miterlimit:10;" d="M 257.636719 138.972656 L 250.523438 154.96875 "/>
<path style="fill:none;stroke-width:1.2;stroke-linecap:butt;stroke-linejoin:miter;stroke:rgb(0%,0%,100%);stroke-opacity:1;stroke-miterlimit:10;" d="M 250.523438 154.96875 L 233.113281 156.808594 "/>
<path style="fill:none;stroke-width:1.2;stroke-linecap:butt;stroke-linejoin:miter;stroke:rgb(0%,0%,0%);stroke-opacity:1;stroke-miterlimit:10;" d="M 233.113281 156.808594 L 215.707031 158.644531 "/>
<path style="fill:none;stroke-width:1.2;stroke-linecap:butt;stroke-linejoin:miter;stroke:rgb(0%,0%,100%);stroke-opacity:1;stroke-miterlimit:10;" d="M 246.175781 147.144531 L 232.25 148.613281 "/>
<path style="fill:none;stroke-width:1.2;stroke-linecap:butt;stroke-linejoin:miter;stroke:rgb(0%,0%,0%);stroke-opacity:1;stroke-miterlimit:10;" d="M 232.25 148.613281 L 218.324219 150.085938 "/>
<path style=" stroke:none;fill-rule:nonzero;fill:rgb(100%,100%,100%);fill-opacity:1;" d="M 245.523438 146.96875 L 255.523438 146.96875 L 255.523438 162.96875 L 245.523438 162.96875 Z M 245.523438 146.96875 "/>
<g style="fill:rgb(0%,0%,100%);fill-opacity:1;">
  <use xlink:href="#glyph0-1" x="245.523438" y="159.344727"/>
</g>
<path style="fill:none;stroke-width:1.2;stroke-linecap:butt;stroke-linejoin:miter;stroke:rgb(0%,0%,0%);stroke-opacity:1;stroke-miterlimit:10;" d="M 215.707031 158.644531 L 208.59375 174.640625 "/>
<path style="fill:none;stroke-width:1.2;stroke-linecap:butt;stroke-linejoin:miter;stroke:rgb(0%,0%,100%);stroke-opacity:1;stroke-miterlimit:10;" d="M 208.59375 174.640625 L 201.480469 190.636719 "/>
<path style="fill:none;stroke-width:1.2;stroke-linecap:butt;stroke-linejoin:miter;stroke:rgb(0%,0%,100%);stroke-opacity:1;stroke-miterlimit:10;" d="M 201.480469 190.636719 L 211.777344 204.792969 "/>
<path style="fill:none;stroke-width:1.2;stroke-linecap:butt;stroke-linejoin:miter;stroke:rgb(0%,0%,0%);stroke-opacity:1;stroke-miterlimit:10;" d="M 211.777344 204.792969 L 222.070312 218.953125 "/>
<path style="fill:none;stroke-width:1.2;stroke-linecap:butt;stroke-linejoin:miter;stroke:rgb(0%,0%,100%);stroke-opacity:1;stroke-miterlimit:10;" d="M 201.480469 190.636719 L 184.070312 192.472656 "/>
<path style="fill:none;stroke-width:1.2;stroke-linecap:butt;stroke-linejoin:miter;stroke:rgb(0%,0%,0%);stroke-opacity:1;stroke-miterlimit:10;" d="M 184.070312 192.472656 L 166.660156 194.3125 "/>
<path style=" stroke:none;fill-rule:nonzero;fill:rgb(100%,100%,100%);fill-opacity:1;" d="M 196.480469 182.636719 L 206.480469 182.636719 L 206.480469 198.636719 L 196.480469 198.636719 Z M 196.480469 182.636719 "/>
<g style="fill:rgb(0%,0%,100%);fill-opacity:1;">
  <use xlink:href="#glyph0-1" x="196.480469" y="195.012695"/>
</g>
</g>
</svg>

<svg xmlns="http://www.w3.org/2000/svg" xmlns:xlink="http://www.w3.org/1999/xlink" width="300pt" height="300pt" viewBox="0 0 300 300"><defs><symbol overflow="visible"><path d="M.64 2.297v-11.47h6.5v11.47zm.735-.72h5.047V-8.436H1.375zm0 0"/></symbol><symbol overflow="visible" id="a"><path d="M1.28-9.484H3l4.203 7.937v-7.937h1.25V0H6.72L2.515-7.922V0H1.28zm0 0"/></symbol></defs><g><path fill="#fff" d="M0 0h300v300H0z"/><path d="M117.617 229.977L107.32 215.82" stroke-width="1.2" stroke="#000" stroke-miterlimit="10" fill="none"/><path d="M107.32 215.82l-10.293-14.16M97.027 201.66l-17.41 1.84" stroke-width="1.2" stroke="#00f" stroke-miterlimit="10" fill="none"/><path d="M79.617 203.5l-17.41 1.836" stroke-width="1.2" stroke="#000" stroke-miterlimit="10" fill="none"/><path d="M97.027 201.66l7.114-15.992" stroke-width="1.2" stroke="#00f" stroke-miterlimit="10" fill="none"/><path d="M104.14 185.668l7.11-15.996" stroke-width="1.2" stroke="#000" stroke-miterlimit="10" fill="none"/><path d="M92.027 193.66h10v16h-10zm0 0" fill="#fff"/><use xlink:href="#a" x="92.027" y="206.036" fill="#00f"/><path d="M111.25 169.672l-20.59-28.317M90.66 141.355l-34.816 3.676M86.313 133.53l-27.856 2.94M104.887 109.363L90.66 141.355M55.844 145.03L35.25 116.716M35.25 116.715l14.227-31.992M44.2 116.863L55.58 91.27M49.477 84.723l34.816-3.676M84.293 81.047l20.594 28.316M79.69 88.727l16.474 22.652M104.887 109.363l34.816-3.675M139.703 105.688l20.594 28.316M148.426 103.676l16.472 22.652M153.93 73.7l-14.227 31.987M160.297 134.004l34.816-3.676M195.113 130.328L209.34 98.34M204.063 130.477l11.382-25.594M215.707 158.645l-20.594-28.317M209.34 98.34l-20.59-28.317M209.34 98.34l17.41-1.84" stroke-width="1.2" stroke="#000" stroke-miterlimit="10" fill="none"/><path d="M226.75 96.5l17.406-1.836" stroke-width="1.2" stroke="#00f" stroke-miterlimit="10" fill="none"/><path d="M188.75 70.023L153.93 73.7M186.133 78.582l-27.856 2.94" stroke-width="1.2" stroke="#000" stroke-miterlimit="10" fill="none"/><path d="M244.156 94.664l10.297 14.156" stroke-width="1.2" stroke="#00f" stroke-miterlimit="10" fill="none"/><path d="M254.453 108.82l10.297 14.16" stroke-width="1.2" stroke="#000" stroke-miterlimit="10" fill="none"/><path d="M239.555 102.34l8.238 11.324" stroke-width="1.2" stroke="#00f" stroke-miterlimit="10" fill="none"/><path d="M247.793 113.664l8.234 11.328" stroke-width="1.2" stroke="#000" stroke-miterlimit="10" fill="none"/><path d="M239.156 86.664h10v16h-10zm0 0" fill="#fff"/><use xlink:href="#a" x="239.156" y="99.04" fill="#00f"/><path d="M264.75 122.98l-7.113 15.993" stroke-width="1.2" stroke="#000" stroke-miterlimit="10" fill="none"/><path d="M257.637 138.973l-7.114 15.996M250.523 154.97l-17.41 1.84" stroke-width="1.2" stroke="#00f" stroke-miterlimit="10" fill="none"/><path d="M233.113 156.81l-17.406 1.835" stroke-width="1.2" stroke="#000" stroke-miterlimit="10" fill="none"/><path d="M246.176 147.145l-13.926 1.468" stroke-width="1.2" stroke="#00f" stroke-miterlimit="10" fill="none"/><path d="M232.25 148.613l-13.926 1.473" stroke-width="1.2" stroke="#000" stroke-miterlimit="10" fill="none"/><path d="M245.523 146.97h10v16h-10zm0 0" fill="#fff"/><use xlink:href="#a" x="245.523" y="159.345" fill="#00f"/><path d="M215.707 158.645l-7.113 15.996" stroke-width="1.2" stroke="#000" stroke-miterlimit="10" fill="none"/><path d="M208.594 174.64l-7.114 15.997M201.48 190.637l10.297 14.156" stroke-width="1.2" stroke="#00f" stroke-miterlimit="10" fill="none"/><path d="M211.777 204.793l10.293 14.16" stroke-width="1.2" stroke="#000" stroke-miterlimit="10" fill="none"/><path d="M201.48 190.637l-17.41 1.836" stroke-width="1.2" stroke="#00f" stroke-miterlimit="10" fill="none"/><path d="M184.07 192.473l-17.41 1.84" stroke-width="1.2" stroke="#000" stroke-miterlimit="10" fill="none"/><path d="M196.48 182.637h10v16h-10zm0 0" fill="#fff"/><use xlink:href="#a" x="196.48" y="195.013" fill="#00f"/></g></svg>
